static/logos/sentry-glyph-color.svg

<svg width="50" height="45" viewBox="0 0 50 45" fill="none" xmlns="http://www.w3.org/2000/svg">
<g clip-path="url(#clip0_1_1121)">
<path d="M29.1585 2.71011C28.7471 2.02753 28.1664 1.46284 27.4726 1.07085C26.7787 0.678861 25.9953 0.47287 25.1985 0.47287C24.4015 0.47287 23.6181 0.678861 22.9243 1.07085C22.2304 1.46284 21.6497 2.02753 21.2384 2.71011L14.7242 13.8674C19.7008 16.352 23.9409 20.0952 27.0236 24.7252C30.1061 29.3552 31.9241 34.711 32.2967 40.2608H27.723C27.3509 35.5036 25.7432 30.9259 23.0587 26.9809C20.3743 23.0358 16.7062 19.8601 12.4175 17.768L6.3884 28.1927C8.79939 29.274 10.8998 30.9441 12.4965 33.0495C14.0933 35.1548 15.1351 37.6278 15.5261 40.2411H5.02221C4.89764 40.2322 4.77721 40.1925 4.67181 40.1256C4.5664 40.0586 4.47932 39.9664 4.41842 39.8574C4.35752 39.7484 4.32472 39.6259 4.32297 39.5011C4.32123 39.3762 4.35058 39.2528 4.40841 39.1422L7.319 34.1922C6.3329 33.3694 5.20591 32.7321 3.99261 32.3111L1.1117 37.2611C0.811792 37.7756 0.617083 38.3445 0.538906 38.9348C0.460726 39.5251 0.500628 40.1251 0.656292 40.6998C0.811962 41.2746 1.08029 41.8127 1.44569 42.2829C1.81109 42.7531 2.26628 43.146 2.78481 43.4388C3.46801 43.8237 4.23804 44.0281 5.02221 44.0328H19.4069C19.6741 40.7361 19.0854 37.4263 17.6978 34.424C16.3103 31.4217 14.1709 28.8286 11.4869 26.8958L13.7738 22.9358C17.161 25.2623 19.8831 28.4317 21.6713 32.1314C23.4595 35.8311 24.2521 39.9332 23.9708 44.0328H36.1577C36.4415 37.8224 35.0905 31.6464 32.2396 26.1219C29.3887 20.5973 25.1378 15.9177 19.9118 12.5507L24.5352 4.63071C24.6382 4.4581 24.8052 4.33317 24.9999 4.28311C25.1945 4.23304 25.4011 4.2619 25.5746 4.36341C26.0993 4.65051 45.6617 38.7857 46.0281 39.1817C46.0926 39.2974 46.1254 39.4281 46.1232 39.5606C46.121 39.6931 46.0839 39.8226 46.0156 39.9362C45.9473 40.0497 45.8502 40.1431 45.7342 40.2071C45.6182 40.2711 45.4873 40.3033 45.3548 40.3005H40.6425C40.7019 41.5611 40.7019 42.8184 40.6425 44.0723H45.3747C45.9755 44.0763 46.5712 43.961 47.1273 43.7331C47.6833 43.5053 48.1887 43.1695 48.6141 42.745C49.0394 42.3205 49.3764 41.8159 49.6055 41.2604C49.8345 40.7048 49.9511 40.1094 49.9485 39.5084C49.9491 38.7147 49.7371 37.9353 49.3347 37.2512L29.1585 2.71011Z" fill="#362D59"/>
</g>
<defs>
<clipPath id="clip0_1_1121">
<rect width="50" height="44.5055" fill="white"/>
</clipPath>
</defs>
</svg>

<svg xmlns="http://www.w3.org/2000/svg" width="71.111" height="64" fill="none" viewBox="0 0 50 45"><g clip-path="url(#a)"><path fill="#362D59" d="M29.159 2.71a4.625 4.625 0 0 0-7.92 0l-6.515 11.157a31.889 31.889 0 0 1 17.573 26.394h-4.574a27.404 27.404 0 0 0-15.305-22.493l-6.03 10.425a15.76 15.76 0 0 1 9.138 12.048H5.022a.754.754 0 0 1-.614-1.099l2.911-4.95a10.632 10.632 0 0 0-3.326-1.88l-2.881 4.95a4.495 4.495 0 0 0 1.673 6.177c.683.385 1.453.59 2.237.594h14.385a19.205 19.205 0 0 0-7.92-17.137l2.287-3.96A23.632 23.632 0 0 1 23.97 44.033h12.187A35.52 35.52 0 0 0 19.912 12.55l4.623-7.92a.762.762 0 0 1 1.04-.268c.524.288 20.087 34.423 20.453 34.819a.752.752 0 0 1-.673 1.118h-4.712c.059 1.261.059 2.518 0 3.772h4.732a4.542 4.542 0 0 0 4.574-4.564c0-.793-.212-1.573-.614-2.257L29.158 2.711Z"/></g><defs><clipPath id="a"><path fill="#fff" d="M0 0h50v44.505H0z"/></clipPath></defs></svg>
